<?xml version="1.0" encoding="UTF-8"?>
<map version="1.10" tiledversion="1.11.0" orientation="orthogonal" renderorder="right-down" width="30" height="12" tilewidth="32" tileheight="32" infinite="0" nextlayerid="3" nextobjectid="7">
 <tileset firstgid="1" name="tileset_placeholder" tilewidth="32" tileheight="32" tilecount="2" columns="2">
  <image source="../tileset_placeholder.png" width="64" height="32"/>
 </tileset>
 <layer id="1" name="Ground" width="30" height="12">
  <data encoding="csv">
2,2,2,2,2,2,2,2,2,2,2,2,2,2,2,2,2,2,2,2,2,2,2,2,2,2,2,2,2,2,
2,1,1,1,1,1,1,1,1,1,1,1,1,1,1,1,1,1,1,1,1,1,1,1,1,1,1,1,1,2,
2,1,1,1,1,1,1,1,1,1,1,1,1,1,1,1,1,1,1,1,1,1,1,1,1,1,1,1,1,2,
2,1,1,1,1,1,1,1,1,1,1,1,1,1,1,1,1,1,1,1,1,1,1,1,1,1,1,1,1,2,
2,1,1,1,1,1,1,1,1,1,1,1,1,1,1,1,1,1,1,1,1,1,1,1,1,1,1,1,1,2,
2,1,1,1,1,1,1,1,1,1,1,1,1,1,1,1,1,1,1,1,1,1,1,1,1,1,1,1,1,2,
2,1,1,1,1,1,1,1,1,1,1,1,1,1,1,1,1,1,1,1,1,1,1,1,1,1,1,1,1,2,
2,1,1,1,1,1,1,1,1,1,1,1,1,1,1,1,1,1,1,1,1,1,1,1,1,1,1,1,1,2,
2,1,1,1,1,1,1,1,1,1,1,1,1,1,1,1,1,1,1,1,1,1,1,1,1,1,1,1,1,2,
2,1,1,1,1,1,1,1,1,1,1,1,1,1,1,1,1,1,1,1,1,1,1,1,1,1,1,1,1,2,
2,1,1,1,1,1,1,1,1,1,1,1,1,1,1,1,1,1,1,1,1,1,1,1,1,1,1,1,1,2,
2,2,2,2,2,2,2,2,2,2,2,2,2,2,2,2,2,2,2,2,2,2,2,2,2,2,2,2,2,2
</data>
 </layer>
 <objectgroup id="2" name="Objects">
  <object id="1" type="EnemySpawn" x="200" y="120">
   <point/>
  </object>
  <object id="2" type="EnemySpawn" x="700" y="220">
   <point/>
  </object>
  <object id="4" name="south_west" type="Door" x="242.009" y="380.564">
   <properties>
    <property name="targetDoorName" value="north_west"/>
    <property name="targetRoom" value="maps/test01_west.tmx"/>
   </properties>
   <point/>
  </object>
  <object id="5" name="south_east" type="Door" x="752.814" y="377.793">
   <properties>
    <property name="targetDoorName" value="north_east"/>
    <property name="targetRoom" value="maps/test01_east.tmx"/>
   </properties>
   <point/>
  </object>
 </objectgroup>
</map>
